X:1
T:Gnossienne No. 3
T:Gnossienne No. 3
T:from Trois Gnossiennes
T:Erik Satie (1866–1925)
T:Éric Alfred Leslie Satie
C:Erik Satie(1866 – 1925)
Z:Éric Alfred Leslie Satie
%%score { 1 | ( 2 3 ) }
L:1/8
Q:1/4=60
M:none
K:C
V:1 treble nm="Piano"
V:2 bass 
V:3 bass 
V:1
!p!"^Lent" (aa^dd ^ff- f2) z2 (ee ^ddcc BB- B2) z4 z8 (aa^dd ^ff- f2) | %1
 z2"^conseillez-vous soigneusement" (ee ^ddcc BB- B2) z4{/B} (=d2 BB cc- c2 BB- B2) z4{/B} d8- | %2
 d2"^munissez-vous de clairvoyance" (BB ddBB ^GABd BAGA BdBA ^GABd ffAA- A2) z2 | %3
 z8"^seul, pendant un instant" (ee^AA ^cc- c2) z2 (BB ^AAGG ^FF- F2) z4 z8 | %4
 (ee^AA ^cc- c2) z2 (BB ^AAGG ^FF- F2) z4{/^F} =A8"^de manière a obtenir un creux" (E^F=G^A B^cec | %5
 B^AG^F E^FG^A B^cec B^AG^F E^FG^A B^cec dd- d2) z4 | %6
 z8"^très perdu" (E^FG^A B^cec B^AG^F E^FG^A B^cec B^AG^F | %7
 E^FG^A B^cec dd- d2) z4"^portez cela plus loin"{/^F} =A8- A4 z4{/=c} _A8- A4 z4 | %8
"^ouvrez la tête" (_A=Bc_e dcB_A cc- c2) z4{/B} d8- d4 z4 (_A=Bc_e dcB_A | %9
 cc- c2) z4{/B} d8 (aa^dd ^ff- f2) z2 (ee ^ddcc BB- B2) z4 z8 | %10
"^enfouissez le son" aa^dd ^ff- f2 z2 ee ^ddcc BB- B2 z2 BB ee- e2 z4 z8 |] %11
V:2
 z2[I:staff -1] [CEA]4 [CEA]2[I:staff +1] z2[I:staff -1] [CEA]4 [CEA]2[I:staff +1] z2 [G,B,E]4 [G,B,E]2 z2 [G,B,E]4 [G,B,E]2 z2[I:staff -1] [CEA]4 [CEA]2 | %1
[I:staff +1] z2[I:staff -1] [CEA]4 [CEA]2[I:staff +1] z2 [G,B,E]4 [G,B,E]2 z2 [A,D=F]4 [A,DF]2 z2 [^G,B,E]4 [G,B,E]2 z2 [A,D=F]4 [A,DF]2 | %2
 z2 [A,DF]4 [A,DF]2 z2 [A,DF]4 [A,DF]2 z2 [A,DF]4 [A,DF]2 z2 [A,CE]4 [A,CE]2 | %3
 z2 [A,CE]4 [A,CE]2 z2 [G,B,E]4 [G,B,E]2 z2 [G,B,E]4 [G,B,E]2 z2 [^F,B,D]4 [F,B,D]2 z2 [F,B,D]4 [F,B,D]2 | %4
 z2 [G,B,E]4 [G,B,E]2 z2 [G,B,E]4 [G,B,E]2 z2 [^F,B,D]4 [F,B,D]2 z2 [A,^C^F]4 [A,CF]2 z2 [G,B,E]4 [G,B,E]2 | %5
 z2 [G,B,E]4 [G,B,E]2 z2 [G,B,E]4 [G,B,E]2 z2 [G,B,E]4 [G,B,E]2 z2 [^F,B,D]4 [F,B,D]2 | %6
 z2 [^F,B,D]4 [F,B,D]2 z2 [G,B,E]4 [G,B,E]2 z2 [G,B,E]4 [G,B,E]2 z2 [G,B,E]4 [G,B,E]2 | %7
 z2 [G,B,E]4 [G,B,E]2 z2 [^F,B,D]4 [F,B,D]2 z2 [A,=CE]4 [A,CE]2 z2 [A,CE]4 [A,CE]2 z2 [_A,C=F]4 [A,CF]2 z2 [A,CF]4 [A,CF]2 | %8
 z2 [_A,CF]4 [A,CF]2 z2 [A,CF]4 [A,CF]2 z2 [=A,DF]4 [A,DF]2 z2 [A,DF]4 [A,DF]2 z2 [_A,CF]4 [A,CF]2 | %9
 z2 [_A,CF]4 [A,CF]2 z2 [=A,DF]4 [A,DF]2 z2[I:staff -1] [CEA]4 [CEA]2[I:staff +1] z2[I:staff -1] [CEA]4 [CEA]2[I:staff +1] z2 [G,B,E]4 [G,B,E]2 z2 [G,B,E]4 [G,B,E]2 | %10
 z2[I:staff -1] [CEA]4 [CEA]2[I:staff +1] z2[I:staff -1] [CEA]4 [CEA]2[I:staff +1] z2 [G,B,E]4 [G,B,E]2 z2 [A,CE]4 [A,CE]2 z2 [A,CE]4 !fermata![A,CE]2 |] %11
V:3
 A,,8 A,,8 E,,8 E,,8 A,,8 | A,,8 E,,8 D,,8 E,,8 D,,8 | D,,8 D,,8 D,,8 A,,,8 | %3
 A,,8 E,,8 E,,8 B,,,8 B,,,8 | E,,8 E,,8 B,,,8 ^F,,,8 E,,8 | E,,8 E,,8 E,,8 B,,,8 | %6
 B,,,8 E,,8 E,,8 E,,8 | E,,8 B,,,8 A,,,8 A,,8 F,,8 F,,8 | F,,8 F,,8 D,,8 D,,8 F,,8 | %9
 F,,8 D,,8 A,,8 A,,8 E,,8 E,,8 | A,,8 A,,8 E,,8 A,,,8 !fermata!A,,8 |] %11

